static/images/author.svg

<svg width="32" height="37" viewBox="0 0 32 37" fill="none" xmlns="http://www.w3.org/2000/svg">
<path d="M0 9.25V27.75L15.6 37L31.2 27.75V9.25L15.6 0L0 9.25Z" fill="#FBC5B4"/>
<path d="M15.1613 18.3369C17.571 18.3369 19.531 15.7796 19.531 13.3701C19.531 10.9607 17.571 9 15.1613 9C12.7516 9 10.7913 10.9607 10.7913 13.3701C10.7917 15.7793 12.7517 18.3369 15.1613 18.3369Z" fill="#090940"/>
<path d="M18.442 18.3818C17.5943 19.0276 16.537 19.4119 15.3916 19.4119H14.9315C13.7858 19.4119 12.7282 19.0275 11.8808 18.3818C9.11332 18.8292 7 21.2281 7 24.1216C7 25.7112 10.654 27.0003 15.1616 27.0003C19.6691 27.0003 23.3231 25.7112 23.3231 24.1216C23.3231 21.228 21.2095 18.829 18.442 18.3818H18.442Z" fill="#090940"/>
</svg>

<svg width="32" height="37" fill="none" xmlns="http://www.w3.org/2000/svg">
    <path d="M0 9.25v18.5L15.6 37l15.6-9.25V9.25L15.6 0 0 9.25Z" fill="#FBC5B4"/>
    <path d="M15.161 18.337c2.41 0 4.37-2.557 4.37-4.967 0-2.41-1.96-4.37-4.37-4.37s-4.37 1.96-4.37 4.37 1.96 4.967 4.37 4.967ZM18.442 18.382a5.018 5.018 0 0 1-3.05 1.03h-.46a5.018 5.018 0 0 1-3.051-1.03A5.816 5.816 0 0 0 7 24.122C7 25.712 10.654 27 15.162 27c4.507 0 8.161-1.289 8.161-2.878a5.816 5.816 0 0 0-4.881-5.74Z" fill="#090940"/>
</svg>
